src/activities/sport/1F93F.svg

<?xml version="1.0" encoding="UTF-8"?>
<svg id="emoji" xmlns="http://www.w3.org/2000/svg" viewBox="0 0 72 72">
  <g id="grid">
    <path d="m68,3.8824v64H4V3.8824h64M72-.1176H0v72h72V-.1176Z" fill="#b3b3b3"/>
    <path d="m12.923,10.8407h46.1539c1.0621,0,1.9231.861,1.9231,1.9231v46.1538c0,1.0621-.861,1.9231-1.9231,1.9231H12.9231c-1.0621,0-1.9231-.861-1.9231-1.9231h0V12.7637c0-1.062.861-1.923,1.923-1.923Z" fill="none" stroke="#00a5ff" stroke-miterlimit="10" stroke-width=".1"/>
    <rect x="16" y="3.8824" width="40" height="64" rx="2.2537" ry="2.2537" fill="none" stroke="#00a5ff" stroke-miterlimit="10" stroke-width=".1"/>
    <rect x="4" y="15.8824" width="64" height="40" rx="2.2537" ry="2.2537" fill="none" stroke="#00a5ff" stroke-miterlimit="10" stroke-width=".1"/>
    <circle cx="36" cy="35.8824" r="29" fill="none" stroke="#00a5ff" stroke-miterlimit="10" stroke-width=".1"/>
  </g>
  <g id="color">
    <path d="m45.7108,46.9071l.3911,6.0624s6.5513,5.0846,12.5159-4.2046l.7822-6.1602-.7822-1.7601s-7.0402,9.2892-12.9071,6.0624Z" fill="#fff"/>
    <g>
      <path d="m39.8089,48.7871h4.1716c1.1046,0,2,.8954,2,2s-.8954,2-2,2h-1.0918" fill="#61b2e4"/>
      <path d="m42.8887,52.7871c.0517.0674.1064.1348.167.2031.8574.9737,2.81,2.1866,7.2353,2.4356,1.9639.157,3.9304-.271,5.6514-1.23,2.376-1.4587,4.0845-3.792,4.7576-6.4976.2337-.8547.3467-1.738.3359-2.624V7c0-1.1046.8954-2,2-2s2,.8954,2,2v38.0742c.0112,1.2622-.1548,2.5197-.4929,3.7358-.9636,3.683-3.3177,6.8489-6.5674,8.832-2.1253,1.2153-4.5376,1.8384-6.9856,1.8043-.3056,0-.6135-.0088-.9238-.0264-4.7773-.2685-8.1924-1.5967-10.1523-3.9482-.6559-.7785-1.1379-1.6881-1.4139-2.668l-1.5225-.0166c-1.1046-.0062-1.995-.9067-1.9888-2.0112s.9067-1.995,2.0112-1.9888h2.8089" fill="#61b2e4"/>
    </g>
    <path d="m32.823,42.7361c.9093-.0071,1.7956.285,2.5225.8313,2.423,1.8508,7.6443,1.8431,10.6744,1.5713,5.5412-.4972,10.517-1.1755,10.941-8.15l-.4014-7.026,1.5272.04v-3.3261s-8.39-7.1786-24.0823-1.8519h-4.79c-14.7722-5.05-24.2808,1.8519-24.2808,1.8519v3.3261l1.5271-.04-.4014,7.026c.424,6.9749,5.4,7.6532,10.941,8.15,3.03.2718,8.2514.2795,10.6744-1.5713.7269-.5463,1.6132-.8384,2.5225-.8313h2.6258Z" fill="#92d3f5"/>
    <path d="m33.9546,27.8015c2.0036-.993,4.2085-1.5125,6.4447-1.5183h8.9545c2.2064.0065,3.9935,1.7936,4,4v7.5668c-.0065,2.2064-1.7936,3.9935-4,4h-7.7713c-2.4532-.1391-4.7119-1.3802-6.1448-3.3763l-1.7829-2.8064c-1.18-1.8569-3.1338-1.8723-4.3424-.034l-1.89,2.8745c-1.468,1.978-3.7383,3.2024-6.1976,3.3422h-7.5587c-2.2064-.0065-3.9935-1.7936-4-4v-7.5668c.0065-2.2064,1.7936-3.9935,4-4h8.6975c2.2762.0155,4.5208.534,6.5732,1.5183,1.5683.8352,3.4495.8352,5.0178,0Z" fill="#d0cfce"/>
    <path d="m47.8415,26.2832h3.3c1.815,0,3.3,1.8,3.3,4v7.5668c-.0065,2.2064-1.7936,3.9935-4,4h-6.39" fill="#9b9b9a"/>
    <polygon points="60.428 18.572 65.62 18.572 65.573 23.777 60.381 23.777 60.428 18.572" stroke="#000" stroke-linecap="round" stroke-linejoin="round" stroke-width="2"/>
    <polygon points="60.428 18.572 65.62 18.572 65.573 23.777 60.381 23.777 60.428 18.572" stroke="#000" stroke-linecap="round" stroke-linejoin="round" stroke-width="2"/>
  </g>
  <g id="line">
    <path d="m32.823,42.7361c.9093-.0071,1.7956.285,2.5225.8313,2.423,1.8508,7.6443,1.8431,10.6744,1.5713,5.5412-.4972,10.517-1.1755,10.941-8.15l-.4014-7.026,1.5272.04v-3.3261s-8.39-7.1786-24.0823-1.8519h-4.79c-14.7722-5.05-24.2808,1.8519-24.2808,1.8519v3.3261l1.5271-.04-.4014,7.026c.424,6.9749,5.4,7.6532,10.941,8.15,3.03.2718,8.2514.2795,10.6744-1.5713.7269-.5463,1.6132-.8384,2.5225-.8313h2.6258Z" fill="none" stroke="#000" stroke-linecap="round" stroke-linejoin="round" stroke-width="2"/>
    <path d="m33.9546,27.8015c2.0036-.993,4.2085-1.5125,6.4447-1.5183h8.9545c2.2064.0065,3.9935,1.7936,4,4v7.5668c-.0065,2.2064-1.7936,3.9935-4,4h-7.7713c-2.4532-.1391-4.7119-1.3802-6.1448-3.3763l-1.7829-2.8064c-1.18-1.8569-3.1338-1.8723-4.3424-.034l-1.89,2.8745c-1.468,1.978-3.7383,3.2024-6.1976,3.3422h-7.5587c-2.2064-.0065-3.9935-1.7936-4-4v-7.5668c.0065-2.2064,1.7936-3.9935,4-4h8.6975c2.2762.0155,4.5208.534,6.5732,1.5183,1.5683.8352,3.4495.8352,5.0178,0Z" fill="none" stroke="#000" stroke-linecap="round" stroke-linejoin="round" stroke-width="2"/>
    <path d="m63.0361,5c1.1046,0,2,.8954,2,2h0v38.0742c.0111,1.2622-.1549,2.5197-.4931,3.7358-.9636,3.683-3.3177,6.8489-6.5674,8.832-2.1253,1.2153-4.5376,1.8384-6.9856,1.8043-.3056,0-.6135-.0088-.9238-.0264-4.7773-.2685-8.1924-1.5967-10.1523-3.9482-.6559-.7785-1.1379-1.6881-1.4139-2.668l-1.5225-.0166c-1.0998-.0127-1.9831-.9108-1.9775-2.0107" fill="none" stroke="#000" stroke-linecap="round" stroke-linejoin="round" stroke-width="2"/>
  </g>
</svg>

<svg id="emoji" viewBox="0 0 72 72" xmlns="http://www.w3.org/2000/svg">
  <g id="grid">
    <path fill="#b3b3b3" d="M68,3.8824v64H4v-64H68m4-4H0v72H72v-72Z"/>
    <path fill="none" stroke="#00a5ff" stroke-miterlimit="10" stroke-width="0.1" d="M12.923,10.8407H59.0769A1.9231,1.9231,0,0,1,61,12.7638V58.9176a1.9231,1.9231,0,0,1-1.9231,1.9231H12.9231A1.9231,1.9231,0,0,1,11,58.9176V12.7637A1.923,1.923,0,0,1,12.923,10.8407Z"/>
    <rect x="16" y="3.8824" rx="2.2537" width="40" height="64" fill="none" stroke="#00a5ff" stroke-miterlimit="10" stroke-width="0.1"/>
    <rect x="16" y="3.8824" rx="2.2537" width="40" height="64" transform="translate(71.8824 -0.1176) rotate(90)" fill="none" stroke="#00a5ff" stroke-miterlimit="10" stroke-width="0.1"/>
    <circle cx="36" cy="35.8824" r="29" fill="none" stroke="#00a5ff" stroke-miterlimit="10" stroke-width="0.1"/>
  </g>
  <g id="color">
    <g>
      <path fill="#61b2e4" d="M39.8089,48.7871h4.1716a2,2,0,0,1,0,4H42.8887"/>
      <path fill="#61b2e4" d="M42.8887,52.7871c.0517.0674.1064.1348.167.2031.8574.9737,2.81,2.1866,7.2353,2.4356a9.9772,9.9772,0,0,0,5.6514-1.23A10.6383,10.6383,0,0,0,60.7,47.6982a9.509,9.509,0,0,0,.3359-2.624V7a2,2,0,0,1,4,0V45.0742A13.4992,13.4992,0,0,1,64.543,48.81a14.708,14.708,0,0,1-6.5674,8.832A13.6886,13.6886,0,0,1,50.99,59.4463q-.4584,0-.9238-.0264c-4.7773-.2685-8.1924-1.5967-10.1523-3.9482A7.1491,7.1491,0,0,1,38.5,52.8037l-1.5225-.0166a2,2,0,0,1,.0225-4h2.8089"/>
    </g>
    <path fill="#92d3f5" d="M32.823,42.7361a4.1445,4.1445,0,0,1,2.5225.8313c2.423,1.8508,7.6443,1.8431,10.6744,1.5713,5.5412-.4972,10.517-1.1755,10.941-8.15l-.4014-7.026,1.5272.04V26.6766s-8.39-7.1786-24.0823-1.8519h-4.79c-14.7722-5.05-24.2808,1.8519-24.2808,1.8519v3.3261l1.5271-.04-.4014,7.026c.424,6.9749,5.4,7.6532,10.941,8.15,3.03.2718,8.2514.2795,10.6744-1.5713a4.1445,4.1445,0,0,1,2.5225-.8313Z"/>
    <path fill="#d0cfce" d="M33.9546,27.8015a14.5976,14.5976,0,0,1,6.4447-1.5183h8.9545a4.0118,4.0118,0,0,1,4,4V37.85a4.0118,4.0118,0,0,1-4,4H41.5825a8.1306,8.1306,0,0,1-6.1448-3.3763l-1.7829-2.8064c-1.18-1.8569-3.1338-1.8723-4.3424-.034l-1.89,2.8745A8.305,8.305,0,0,1,21.2248,41.85H13.6661a4.0118,4.0118,0,0,1-4-4V30.2832a4.0118,4.0118,0,0,1,4-4h8.6975a15.4435,15.4435,0,0,1,6.5732,1.5183A5.3377,5.3377,0,0,0,33.9546,27.8015Z"/>
    <path fill="#9b9b9a" d="M47.8415,26.2832h3.3c1.815,0,3.3,1.8,3.3,4V37.85a4.0118,4.0118,0,0,1-4,4h-6.39"/>
    <polygon stroke="#000" stroke-linecap="round" stroke-linejoin="round" stroke-width="2" points="60.428 18.572 65.62 18.572 65.573 23.777 60.381 23.777 60.428 18.572"/>
    <polygon stroke="#000" stroke-linecap="round" stroke-linejoin="round" stroke-width="2" points="60.428 18.572 65.62 18.572 65.573 23.777 60.381 23.777 60.428 18.572"/>
  </g>
  <g id="line">
    <path fill="none" stroke="#000" stroke-linecap="round" stroke-linejoin="round" stroke-width="2" d="M32.823,42.7361a4.1445,4.1445,0,0,1,2.5225.8313c2.423,1.8508,7.6443,1.8431,10.6744,1.5713,5.5412-.4972,10.517-1.1755,10.941-8.15l-.4014-7.026,1.5272.04V26.6766s-8.39-7.1786-24.0823-1.8519h-4.79c-14.7722-5.05-24.2808,1.8519-24.2808,1.8519v3.3261l1.5271-.04-.4014,7.026c.424,6.9749,5.4,7.6532,10.941,8.15,3.03.2718,8.2514.2795,10.6744-1.5713a4.1445,4.1445,0,0,1,2.5225-.8313Z"/>
    <path fill="none" stroke="#000" stroke-linecap="round" stroke-linejoin="round" stroke-width="2" d="M33.9546,27.8015a14.5976,14.5976,0,0,1,6.4447-1.5183h8.9545a4.0118,4.0118,0,0,1,4,4V37.85a4.0118,4.0118,0,0,1-4,4H41.5825a8.1306,8.1306,0,0,1-6.1448-3.3763l-1.7829-2.8064c-1.18-1.8569-3.1338-1.8723-4.3424-.034l-1.89,2.8745A8.305,8.305,0,0,1,21.2248,41.85H13.6661a4.0118,4.0118,0,0,1-4-4V30.2832a4.0118,4.0118,0,0,1,4-4h8.6975a15.4435,15.4435,0,0,1,6.5732,1.5183A5.3377,5.3377,0,0,0,33.9546,27.8015Z"/>
    <path fill="none" stroke="#000" stroke-linecap="round" stroke-linejoin="round" stroke-width="2" d="M63.0361,5a2,2,0,0,1,2,2V45.0742A13.4992,13.4992,0,0,1,64.543,48.81a14.708,14.708,0,0,1-6.5674,8.832A13.6886,13.6886,0,0,1,50.99,59.4463q-.4584,0-.9238-.0264c-4.7773-.2685-8.1924-1.5967-10.1523-3.9482A7.1491,7.1491,0,0,1,38.5,52.8037l-1.5225-.0166A2.0007,2.0007,0,0,1,35,50.7764"/>
  </g>
</svg>
